src/olympics-dark.svg

<svg viewBox="0 0 65 66" fill="none" xmlns="http://www.w3.org/2000/svg"><path fill-rule="evenodd" clip-rule="evenodd" d="M13.65 40.26C21.1887 40.26 27.3 34.0547 27.3 26.4C27.3 18.7453 21.1887 12.54 13.65 12.54C6.1113 12.54 0 18.7453 0 26.4C0 34.0547 6.1113 40.26 13.65 40.26ZM13.65 33.66C17.5987 33.66 20.8 30.4095 20.8 26.4C20.8 22.3905 17.5987 19.14 13.65 19.14C9.70125 19.14 6.5 22.3905 6.5 26.4C6.5 30.4095 9.70125 33.66 13.65 33.66Z" fill="#007DB9"/><path fill-rule="evenodd" clip-rule="evenodd" d="M13.65 40.26C21.1887 40.26 27.3 34.0547 27.3 26.4C27.3 18.7453 21.1887 12.54 13.65 12.54C6.1113 12.54 0 18.7453 0 26.4C0 34.0547 6.1113 40.26 13.65 40.26ZM13.65 33.66C17.5987 33.66 20.8 30.4095 20.8 26.4C20.8 22.3905 17.5987 19.14 13.65 19.14C9.70125 19.14 6.5 22.3905 6.5 26.4C6.5 30.4095 9.70125 33.66 13.65 33.66Z" fill="#007DB9"/><path fill-rule="evenodd" clip-rule="evenodd" d="M13.65 40.26C21.1887 40.26 27.3 34.0547 27.3 26.4C27.3 18.7453 21.1887 12.54 13.65 12.54C6.1113 12.54 0 18.7453 0 26.4C0 34.0547 6.1113 40.26 13.65 40.26ZM13.65 33.66C17.5987 33.66 20.8 30.4095 20.8 26.4C20.8 22.3905 17.5987 19.14 13.65 19.14C9.70125 19.14 6.5 22.3905 6.5 26.4C6.5 30.4095 9.70125 33.66 13.65 33.66Z" fill="#007DB9"/><path fill-rule="evenodd" clip-rule="evenodd" d="M20.15 60.72C27.6887 60.72 33.8 54.5147 33.8 46.86C33.8 39.2053 27.6887 33 20.15 33C12.6113 33 6.5 39.2053 6.5 46.86C6.5 54.5147 12.6113 60.72 20.15 60.72ZM20.15 54.12C24.0987 54.12 27.3 50.8695 27.3 46.86C27.3 42.8505 24.0987 39.6 20.15 39.6C16.2013 39.6 13 42.8505 13 46.86C13 50.8695 16.2013 54.12 20.15 54.12Z" fill="#FFCB08"/><path fill-rule="evenodd" clip-rule="evenodd" d="M40.95 60.72C48.4887 60.72 54.6 54.5147 54.6 46.86C54.6 39.2053 48.4887 33 40.95 33C33.4113 33 27.3 39.2053 27.3 46.86C27.3 54.5147 33.4113 60.72 40.95 60.72ZM40.95 54.12C44.8987 54.12 48.1 50.8695 48.1 46.86C48.1 42.8505 44.8987 39.6 40.95 39.6C37.0012 39.6 33.8 42.8505 33.8 46.86C33.8 50.8695 37.0012 54.12 40.95 54.12Z" fill="#00AC4E"/><path fill-rule="evenodd" clip-rule="evenodd" d="M47.45 40.26C54.9887 40.26 61.1 34.0547 61.1 26.4C61.1 18.7453 54.9887 12.54 47.45 12.54C39.9113 12.54 33.8 18.7453 33.8 26.4C33.8 34.0547 39.9113 40.26 47.45 40.26ZM47.45 33.66C51.3987 33.66 54.6 30.4095 54.6 26.4C54.6 22.3905 51.3987 19.14 47.45 19.14C43.5012 19.14 40.3 22.3905 40.3 26.4C40.3 30.4095 43.5012 33.66 47.45 33.66Z" fill="#ED1B2F"/><path fill-rule="evenodd" clip-rule="evenodd" d="M30.55 27.72C38.0887 27.72 44.2 21.5147 44.2 13.86C44.2 6.20532 38.0887 0 30.55 0C23.0113 0 16.9 6.20532 16.9 13.86C16.9 21.5147 23.0113 27.72 30.55 27.72ZM30.55 21.12C34.4988 21.12 37.7 17.8695 37.7 13.86C37.7 9.8505 34.4988 6.6 30.55 6.6C26.6013 6.6 23.4 9.8505 23.4 13.86C23.4 17.8695 26.6013 21.12 30.55 21.12Z" fill="#666666"/><path fill-rule="evenodd" clip-rule="evenodd" d="M20.475 14.3972C27.0036 18.2246 29.2409 26.701 25.4715 33.33L19.8426 30.03C21.8166 26.5577 20.6446 22.1173 17.225 20.1128C13.8054 18.1078 9.43215 19.2977 7.4581 22.77L1.8291 19.47C5.59715 12.841 13.9458 10.5699 20.475 14.3972Z" fill="#007DB9"/></svg>

<svg viewBox="0 0 65 66" fill="none" xmlns="http://www.w3.org/2000/svg" xmlns:xlink="http://www.w3.org/1999/xlink"><defs><path fill-rule="evenodd" clip-rule="evenodd" d="M13.65 40.26c7.539 0 13.65-6.205 13.65-13.86 0-7.655-6.111-13.86-13.65-13.86C6.111 12.54 0 18.745 0 26.4c0 7.655 6.111 13.86 13.65 13.86Zm0-6.6c3.949 0 7.15-3.25 7.15-7.26s-3.201-7.26-7.15-7.26c-3.949 0-7.15 3.25-7.15 7.26s3.201 7.26 7.15 7.26Z" fill="#007DB9" id="reuse-0"/></defs><use fill-rule="evenodd" clip-rule="evenodd" xlink:href="#reuse-0"/><use fill-rule="evenodd" clip-rule="evenodd" xlink:href="#reuse-0"/><use fill-rule="evenodd" clip-rule="evenodd" xlink:href="#reuse-0"/><path fill-rule="evenodd" clip-rule="evenodd" d="M20.15 60.72c7.539 0 13.65-6.205 13.65-13.86C33.8 39.205 27.689 33 20.15 33 12.611 33 6.5 39.205 6.5 46.86c0 7.655 6.111 13.86 13.65 13.86Zm0-6.6c3.949 0 7.15-3.25 7.15-7.26s-3.201-7.26-7.15-7.26c-3.949 0-7.15 3.25-7.15 7.26s3.201 7.26 7.15 7.26Z" fill="#FFCB08"/><path fill-rule="evenodd" clip-rule="evenodd" d="M40.95 60.72c7.539 0 13.65-6.205 13.65-13.86C54.6 39.205 48.489 33 40.95 33c-7.539 0-13.65 6.205-13.65 13.86 0 7.655 6.111 13.86 13.65 13.86Zm0-6.6c3.949 0 7.15-3.25 7.15-7.26s-3.201-7.26-7.15-7.26c-3.949 0-7.15 3.25-7.15 7.26s3.201 7.26 7.15 7.26Z" fill="#00AC4E"/><path fill-rule="evenodd" clip-rule="evenodd" d="M47.45 40.26c7.539 0 13.65-6.205 13.65-13.86 0-7.655-6.111-13.86-13.65-13.86-7.539 0-13.65 6.205-13.65 13.86 0 7.655 6.111 13.86 13.65 13.86Zm0-6.6c3.949 0 7.15-3.25 7.15-7.26s-3.201-7.26-7.15-7.26c-3.949 0-7.15 3.25-7.15 7.26s3.201 7.26 7.15 7.26Z" fill="#ED1B2F"/><path fill-rule="evenodd" clip-rule="evenodd" d="M30.55 27.72c7.539 0 13.65-6.205 13.65-13.86C44.2 6.205 38.089 0 30.55 0 23.011 0 16.9 6.205 16.9 13.86c0 7.655 6.111 13.86 13.65 13.86Zm0-6.6c3.949 0 7.15-3.25 7.15-7.26S34.499 6.6 30.55 6.6c-3.949 0-7.15 3.25-7.15 7.26s3.201 7.26 7.15 7.26Z" fill="#666666"/><path fill-rule="evenodd" clip-rule="evenodd" d="M20.475 14.397c6.529 3.828 8.766 12.304 4.996 18.933l-5.628-3.3c1.974-3.472.802-7.913-2.618-9.917-3.42-2.005-7.793-.815-9.767 2.657l-5.629-3.3c3.768-6.629 12.117-8.9 18.646-5.073Z" fill="#007DB9"/></svg>
